X:31
T:Lincoln Hornpipe. JGi.031
M:C|
L:1/8
Q:1/2=90
S:Joshua Gibbons MS,1823,Tealby,Lincs.
R:.hornpipe
O:Tealby,Lincolnshire
Z:VMP/R.Greig, 2009
K:D
fe|dcdA FAdf|edec Aceg|fgaf bged|c2A2A2(fe)|
dcdA FAdf|edec Aceg|fgaf bgec|d2d2d2:|
|:fg|afdd d2ga|bgeee2(fg)|afaf bged|c2A2A2fe|
dcdA FAdf|edec Aceg|fgaf bgec|d2d2d2:|

